icons/svg/reactions_12.svg

<?xml version="1.0" encoding="UTF-8"?>
<svg width="12px" height="12px" viewBox="0 0 12 12" version="1.1" xmlns="http://www.w3.org/2000/svg" xmlns:xlink="http://www.w3.org/1999/xlink">
    <!-- Generator: Sketch 57.1 (83088) - https://sketch.com -->
    <title>reactions_12</title>
    <desc>Created with Sketch.</desc>
    <g id="Icons-Webex" stroke="none" stroke-width="1" fill="none" fill-rule="evenodd">
        <g id="chat/reactions_12" fill="#171B1F">
            <path d="M6,0 C6.826,0 7.627,0.165 8.38,0.491 C8.634,0.6 8.751,0.895 8.641,1.148 C8.532,1.401 8.237,1.518 7.984,1.409 C7.356,1.138 6.689,1 6,1 C3.243,1 1,3.243 1,6 C1,8.757 3.243,11 6,11 C8.757,11 11,8.757 11,6 C11,5.761 10.983,5.526 10.951,5.296 C10.912,5.023 11.103,4.77 11.376,4.731 C11.653,4.689 11.902,4.883 11.941,5.156 C11.98,5.432 12,5.713 12,6 C12,9.309 9.309,12 6,12 C2.691,12 0,9.309 0,6 C0,2.691 2.691,0 6,0 Z M8.032,7.1562 C8.223,6.9582 8.54,6.9542 8.739,7.1452 C8.936,7.3382 8.941,7.6552 8.749,7.8522 C8.022,8.6012 7.046,9.0142 6,9.0142 C4.961,9.0142 3.988,8.6062 3.261,7.8652 C3.068,7.6682 3.072,7.3502 3.269,7.1582 C3.467,6.9662 3.783,6.9692 3.976,7.1662 C5.052,8.2622 6.958,8.2622 8.032,7.1562 Z M8.71,4.29 C8.8,4.39 8.87,4.49 8.92,4.62 C8.97,4.74 9,4.87 9,5 C9,5.13 8.97,5.26 8.92,5.38 C8.87,5.51 8.8,5.61 8.71,5.71 C8.52,5.89 8.26,6 8,6 C7.74,6 7.48,5.89 7.29,5.71 C7.2,5.61 7.13,5.5 7.08,5.38 C7.03,5.26 7,5.13 7,5 C7,4.74 7.11,4.48 7.29,4.29 C7.38,4.2 7.49,4.13 7.62,4.08 C7.99,3.92 8.43,4.01 8.71,4.29 Z M4.71,4.29 C4.8,4.39 4.87,4.49 4.92,4.62 C4.97,4.74 5,4.87 5,5 C5,5.13 4.97,5.26 4.92,5.38 C4.87,5.5 4.8,5.61 4.71,5.71 C4.52,5.89 4.26,6 4,6 C3.74,6 3.48,5.89 3.29,5.71 C3.2,5.61 3.13,5.5 3.08,5.38 C3.03,5.26 3,5.13 3,5 C3,4.87 3.03,4.74 3.08,4.62 C3.13,4.49 3.2,4.39 3.29,4.29 C3.67,3.92 4.33,3.92 4.71,4.29 Z M10.0329,0.7332 C10.2791222,0.7332 10.4826778,0.910187654 10.5248726,1.14336187 L10.5329,1.2332 L10.5329,2.2002 L11.4999,2.2002 C11.7759,2.2002 11.9999,2.4242 11.9999,2.7002 C11.9999,2.94553333 11.8229123,3.14978025 11.5897381,3.19213964 L11.4999,3.2002 L10.5329,3.2002 L10.5329,4.1662 C10.5329,4.4432 10.3099,4.6662 10.0329,4.6662 C9.78756667,4.6662 9.58331975,4.49000247 9.54096036,4.25630151 L9.5329,4.1662 L9.5329,3.2002 L8.5669,3.2002 C8.2909,3.2002 8.0669,2.9762 8.0669,2.7002 C8.0669,2.45486667 8.24388765,2.25061975 8.47706187,2.20826036 L8.5669,2.2002 L9.5329,2.2002 L9.5329,1.2332 C9.5329,0.9572 9.7569,0.7332 10.0329,0.7332 Z" id="fill"></path>
        </g>
    </g>
</svg>

<svg width="12" height="12" xmlns="http://www.w3.org/2000/svg"><path d="M6 0c.826 0 1.627.165 2.38.491a.499.499 0 11-.396.918A5.006 5.006 0 001 6c0 2.757 2.243 5 5 5a5.006 5.006 0 004.951-5.704.5.5 0 01.99-.14A6.006 6.006 0 016 12c-3.309 0-6-2.691-6-6s2.691-6 6-6zm2.032 7.156a.501.501 0 01.707-.01c.197.192.202.51.01.706A3.8 3.8 0 016 9.014a3.808 3.808 0 01-2.739-1.149.5.5 0 01.715-.699c1.076 1.096 2.982 1.096 4.056-.01zM8.71 4.29c.09.1.16.2.21.33.05.12.08.25.08.38s-.03.26-.08.38c-.05.13-.12.23-.21.33-.19.18-.45.29-.71.29-.26 0-.52-.11-.71-.29-.09-.1-.16-.21-.21-.33A.995.995 0 017 5c0-.26.11-.52.29-.71.09-.09.2-.16.33-.21.37-.16.81-.07 1.09.21zm-4 0c.09.1.16.2.21.33.05.12.08.25.08.38s-.03.26-.08.38-.12.23-.21.33C4.52 5.89 4.26 6 4 6c-.26 0-.52-.11-.71-.29-.09-.1-.16-.21-.21-.33A.995.995 0 013 5c0-.13.03-.26.08-.38.05-.13.12-.23.21-.33.38-.37 1.04-.37 1.42 0zM10.033.733a.5.5 0 01.492.41l.008.09V2.2h.967a.5.5 0 01.09.992l-.09.008h-.967v.966a.499.499 0 01-.992.09l-.008-.09V3.2h-.966a.5.5 0 01-.09-.992l.09-.008h.966v-.967a.5.5 0 01.5-.5z" fill="#171B1F" fill-rule="evenodd"/></svg>
